assets/images/call.svg

<svg width="24" height="24" viewBox="0 0 24 24" fill="none" xmlns="http://www.w3.org/2000/svg">
<path d="M20.5582 15.7136C20.5058 15.6723 16.7008 12.948 15.6564 13.1436C15.1579 13.2312 14.8728 13.569 14.3008 14.2451C14.2087 14.3543 13.9876 14.6159 13.8156 14.8019C13.4541 14.6848 13.1015 14.5422 12.7604 14.3753C10.9998 13.5239 9.57732 12.1109 8.7202 10.3622C8.55201 10.0234 8.40847 9.67309 8.29068 9.31395C8.47859 9.14253 8.74193 8.92286 8.85442 8.82889C9.53194 8.26384 9.87262 7.98068 9.96082 7.48419C10.1417 6.45567 7.40096 2.65013 7.3722 2.61585C7.24784 2.43939 7.08556 2.2926 6.89709 2.18609C6.70861 2.07958 6.49866 2.01602 6.28242 2C5.17155 2 2 6.0868 2 6.77502C2 6.81502 2.05816 10.8809 7.10566 15.9809C12.235 20.9889 16.3276 21.0467 16.3678 21.0467C17.0613 21.0467 21.175 17.8964 21.175 16.7929C21.1591 16.5789 21.0954 16.371 20.9888 16.1844C20.8821 15.9977 20.7351 15.8369 20.5582 15.7136Z" fill="white"/>
</svg>

<svg xmlns="http://www.w3.org/2000/svg" width="24" height="24" fill="none"><path fill="#fff" d="M20.558 15.714c-.052-.042-3.857-2.766-4.902-2.57-.498.087-.783.425-1.355 1.101-.092.11-.313.37-.485.557a8.728 8.728 0 0 1-5.095-4.44 8 8 0 0 1-.43-1.048c.188-.171.45-.391.563-.485.678-.565 1.019-.848 1.107-1.345.18-1.028-2.56-4.834-2.589-4.868A1.46 1.46 0 0 0 6.282 2C5.172 2 2 6.087 2 6.775c0 .04.058 4.106 5.106 9.206 5.129 5.008 9.222 5.066 9.262 5.066.693 0 4.807-3.15 4.807-4.254a1.44 1.44 0 0 0-.617-1.08"/></svg>
